vendor/shopware/storefront/Resources/app/storefront/dist/assets/icon/solid/textwrap.svg

<svg xmlns="http://www.w3.org/2000/svg" width="16" height="16" viewBox="0 0 16 16">
  <path fill="#758CA3" fill-rule="evenodd" d="M12.5858501,11.0000636 L12.2928932,10.7071068 C11.9023689,10.3165825 11.9023689,9.68341751 12.2928932,9.29289322 C12.6834175,8.90236893 13.3165825,8.90236893 13.7071068,9.29289322 L15.7071068,11.2928932 C16.0976311,11.6834175 16.0976311,12.3165825 15.7071068,12.7071068 L13.7071068,14.7071068 C13.3165825,15.0976311 12.6834175,15.0976311 12.2928932,14.7071068 C11.9023689,14.3165825 11.9023689,13.6834175 12.2928932,13.2928932 L12.5857228,13.0000636 L3.50003181,13.0000636 C1.56701762,13.0000636 3.10861317e-16,11.433046 0,9.50003181 C-3.10861317e-16,7.56701762 1.56701762,6 3.50003181,6 L12.5,6 C13.3284271,6 14,5.32842712 14,4.5 C14,3.67157288 13.3284271,3 12.5,3 L1.03566885,3 C0.483384098,3 0.0356688476,2.55228475 0.0356688476,2 C0.0356688476,1.44771525 0.483384098,1 1.03566885,1 L12.5,1 C14.4329966,1 16,2.56700338 16,4.5 C16,6.43299662 14.4329966,8 12.5,8 L3.50003181,8 C2.67158712,8 2,8.67158712 2,9.50003181 C2,10.3284765 2.67158712,11.0000636 3.50003181,11.0000636 L12.5858501,11.0000636 Z"/>
</svg>

<svg xmlns="http://www.w3.org/2000/svg" width="16" height="16" viewBox="0 0 16 16"><path fill="#758CA3" fill-rule="evenodd" d="m12.5859 11-.293-.2929c-.3905-.3905-.3905-1.0237 0-1.4142.3905-.3905 1.0237-.3905 1.4142 0l2 2c.3905.3905.3905 1.0237 0 1.4142l-2 2c-.3905.3905-1.0237.3905-1.4142 0-.3905-.3905-.3905-1.0237 0-1.4142L12.5857 13H3.5C1.567 13 0 11.433 0 9.5S1.567 6 3.5 6h9c.8284 0 1.5-.6716 1.5-1.5S13.3284 3 12.5 3H1.0357c-.5523 0-1-.4477-1-1s.4477-1 1-1H12.5C14.433 1 16 2.567 16 4.5S14.433 8 12.5 8h-9C2.6716 8 2 8.6716 2 9.5c0 .8285.6716 1.5 1.5 1.5h9.0859z"/></svg>
